X: 1
T: Crested Hens
R: waltz
M: 3/4
L: 1/8
K: Dmaj
|: "Em"E3G FE|B4 Bc|"D"dc Be dc|dc BA GF|
"Em"E3G FE|B4 Bc|"D"dc BA GA|1 "B7" B3G FD :|2 "B7" B4 ef ||
|: "Em" gB Bg gB|"C"=c4ef|"D"gf ag fe|"B7"^d2e2 f2|
   "Em" gB Bg gB|"C"=c4ef|"B7"gf ag fd|1 "Em"e3e ef :|2 "Em"e3G FD ||

